X: 22164
T: L'Antre
R: waltz
M: 3/4
K: Bminor
g4 g2|g2 f e2d|f4 f2|f2 ed2c|
e4 e2|e2 d c2d|1 BF Bc de|fd ef df:|2 B6-|B6||
GA Bc df|FA df ed|cF ^Ac dc|Bf (3efe (3dcB|
GA Bc df|FA df ed|cF ^Ac dc|B2 ^A2 B2|
GA Bc df|FA df ed|cF ^Ac dc|Bf gf ed|
GA Bc df|FA df ed|cF ^Ac dc|B6||
|:B2 c2 d2|b4-bd|a6-|a6|
dB dB dB|Ac de dc|B6-|B6:|
[M:12/8]|:fdB fdB fdB fdB|gdB gdB gdB gdB|
fdB fdB fdB fdB|[M:3/4] e6|c6:|

